X:1
T:The Lookout Answers, “All Is Well”
T:The Lookout Answers, “All Is Well”
T:Daniel Brink Towner
T:Ralph Atkinson, 1908
T:Public Domain Courtesy of the Cyber Hymnal™
T:Public Domain Courtesy of the Cyber Hymnal™
C:Daniel Brink Towner
Z:Public Domain
Z:Courtesy of the Cyber Hymnal™
%%score ( 1 2 ) ( 3 4 )
L:1/8
Q:1/4=100
M:4/4
K:Db
V:1 treble 
V:2 treble 
V:3 bass 
V:4 bass 
V:1
 [DF] | [DF]2 [DF]2 [DF]3 [DF] | [CG]2 [CG]2 [CG]3 [EG] | [E=G]2 [EG]2 [EG]3 [EG] | %4
w: 1.~The|night is dark, the|waves run high, Nor|moon or stars in|
w: 2.~I|sleep up- on the|bil- low’s crest, Like|John up- on the|
w: 3.~By|grief and sin thy|soul op- pressed, And|all a- round thee|
w: 4.~No|sleep e’er dims our|pi- lot’s eyes, He’s|e’er at- ten- tive|
w: 5.~Rest|peace- ful- ly up-|on the deep, For|Je- sus ev- er-|
 [EA]2 [EA]2 [EA]3 [EA] | [E=A]2 [EA]2 [EA]3 [GA] | [FB]2 [Fc]2 [Fd]3 [Fd] | %7
w: yon- der sky; What|cheer a- bove the|storm- y swell? The|
w: Mas- ter’s breast; For|He my ev- ery|fear doth quell With|
w: in un- rest, How|blest to hear the|look- out’s bell, And|
w: to our cries; He’ll|save us from a|sin- ner’s hell, And|
w: more will keep; The|word pass on, to|o- thers tell, The|
 [Ec]2 [EB]2 [=Ge]2 [GB]2 | [Ac]2 [EB]2 [EA]4 ||"^Refrain" [FA]2 [DF]2 [FA]4 | %10
w: look- out’s an- swer,|“All is well.”||
w: His good mes- sage,|“All is well.”||
w: cheer our hearts with|“All is well.”|“All is well!”|
w: cheer our hearts with|“All is well.”||
w: look- out’s an- swer,|“All is well.”||
 [GB]2 [Bd]2 [Fd]3 [Fd] | [Ec]>[Ed] [Ec][EB] c2 [=Gd]2 | [Ge]6 z2 | [FA]2 [DF]2 [FA]4 | %14
w: ||||
w: ||||
w: “All is well!” What|cheer to know that “all is|well!”|“All is well!”|
w: ||||
w: ||||
 ([GB] [Bd]2) [Be] [=Af]3 [Ae] | [Bd]>[Be] [Gd][GB] (A!fermata!d) [Ge]2 | [Fd]6 z |] %17
w: |||
w: |||
w: “All * is well!” The|look- out an- swers “All * is|well!”|
w: |||
w: |||
V:2
 x | x8 | x8 | x8 | x8 | x8 | x8 | x8 | x8 || x8 | x8 | x4 (EA) x2 | x8 | x8 | x8 | x4 F2 x2 | %16
 x7 |] %17
V:3
 [D,A,] | [D,A,]2 [D,A,]2 [D,A,]3 [D,A,] | [E,A,]2 [E,A,]2 [E,A,]3 [C,A,] | %3
w: ~|~ ~ ~ ~|~ ~ ~ ~|
 [B,,D]2 [B,,D]2 [B,,D]3 [B,,D] | [A,,C]2 [A,,C]2 [A,,C]3 [G,C] | [F,C]2 [F,C]2 [F,C]3 [E,C] | %6
w: ~ ~ ~ ~|~ ~ ~ ~|~ ~ ~ ~|
 [D,D]2 [C,=A,]2 [B,,B,]3 [B,,=G,] | [E,A,]2 [E,=G,]2 [E,B,]2 [E,E]2 | [E,E]2 [E,D]2 [A,,C]4 || %9
w: ~ ~ ~ ~|~ ~ ~ ~|~ ~ ~|
 z4 [D,D][D,D] [D,D]2 | z4 [D,A,][D,A,][D,A,][D,A,] | [E,A,]>[E,B,] [E,A,][E,=G,] [E,A,]2 [E,B,]2 | %12
w: “All is well!”|“All is well!” ~|~ ~ ~ ~ ~ ~|
 [A,C]6 z2 | z4 [D,D][D,D] [D,D]2 | z4 [F,C][F,C][F,C][F,C] | %15
w: ~|“All is well!”|“All is well!” *|
 [G,B,]>[G,B,] [G,B,][G,D] (D!fermata!A,) [A,,A,]2 | [D,A,]6 z |] %17
w: ||
V:4
 x | x8 | x8 | x8 | x8 | x8 | x8 | x8 | x8 || x8 | x8 | x8 | x8 | x8 | x8 | x4 A,2 x2 | x7 |] %17

